src/assets/icons/svg/phone.svg

<svg width="24" height="24" viewBox="0 0 24 24" fill="none" xmlns="http://www.w3.org/2000/svg">
<path d="M23.9976 19.3384C23.9642 18.4101 23.5775 17.5437 22.9088 16.8989C21.5995 15.6365 20.5026 14.9076 19.4566 14.6054C18.0154 14.1889 16.6804 14.5676 15.489 15.7311C15.4873 15.7329 15.4855 15.7347 15.4837 15.7364L14.2162 16.9945C13.4241 16.5479 11.8837 15.5675 10.2196 13.9033L10.0962 13.7801C8.43177 12.1157 7.45138 10.5751 7.00527 9.78383L8.2634 8.51629C8.26518 8.51451 8.26696 8.51272 8.26874 8.5109C9.43222 7.31961 9.81097 5.98471 9.39449 4.54335C9.09219 3.49743 8.36343 2.40046 7.1009 1.09119C6.45618 0.422616 5.58988 0.0358968 4.66152 0.00242805C3.7326 -0.0310876 2.84122 0.292256 2.14991 0.912787L2.12301 0.936975C2.11054 0.948178 2.09835 0.959756 2.08644 0.971616C0.71024 2.34782 -0.0111662 4.27443 0.000130668 6.54322C0.0193963 10.3974 2.13763 14.8049 5.66633 18.3336C6.33172 18.999 7.08796 19.6575 7.91399 20.2909C8.32485 20.6059 8.91332 20.5282 9.22836 20.1173C9.54346 19.7064 9.46574 19.118 9.05483 18.8029C8.29382 18.2194 7.59983 17.6154 6.99215 17.0079C3.80483 13.8206 1.89191 9.9051 1.87508 6.5339C1.86641 4.78658 2.39202 3.32816 3.39529 2.31444L3.40246 2.30797C4.08388 1.6963 5.11555 1.73352 5.75127 2.39272C8.17841 4.90982 8.00268 6.09815 6.93018 7.19793L5.19233 8.9488C4.9198 9.2234 4.84391 9.63721 5.00127 9.99065C5.04538 10.0897 6.11268 12.4482 8.77072 15.1062L8.89415 15.2294C11.5519 17.8872 13.9103 18.9545 14.0094 18.9986C14.3628 19.156 14.7767 19.0801 15.0512 18.8076L16.8021 17.0697C17.9021 15.9971 19.0904 15.8215 21.6073 18.2486C22.2666 18.8842 22.3038 19.916 21.6922 20.5973L21.6856 20.6046C20.6802 21.5998 19.2373 22.1249 17.509 22.1249C17.4947 22.1249 17.4805 22.1249 17.4662 22.1248C16.0847 22.118 14.485 21.7393 12.8401 21.0298C12.3648 20.8246 11.8131 21.0438 11.608 21.5193C11.4029 21.9947 11.6221 22.5463 12.0975 22.7514C13.9989 23.5716 15.802 23.9916 17.4568 23.9998C17.4744 23.9999 17.4919 23.9999 17.5094 23.9999C19.7554 23.9999 21.6629 23.2791 23.0285 21.9135C23.0403 21.9016 23.0518 21.8895 23.0631 21.877L23.0874 21.8499C23.7079 21.1587 24.0312 20.2667 23.9976 19.3384Z" fill="black"/>
</svg>

<?xml version="1.0" encoding="iso-8859-1"?>
<!-- Generator: Adobe Illustrator 23.1.0, SVG Export Plug-In . SVG Version: 6.00 Build 0)  -->
<svg version="1.1" id="&#x421;&#x43B;&#x43E;&#x439;_1"
	 xmlns="http://www.w3.org/2000/svg" xmlns:xlink="http://www.w3.org/1999/xlink" x="0px" y="0px" viewBox="0 0 24 24"
	 style="enable-background:new 0 0 24 24;" xml:space="preserve">
<path d="M23.998,19.338c-0.033-0.928-0.42-1.795-1.089-2.44c-1.309-1.262-2.406-1.991-3.452-2.293
	c-1.441-0.417-2.776-0.038-3.968,1.126c-0.002,0.002-0.003,0.004-0.005,0.005l-1.267,1.258c-0.792-0.447-2.332-1.427-3.997-3.091
	l-0.123-0.123c-1.664-1.664-2.645-3.205-3.091-3.996l1.258-1.268c0.002-0.002,0.004-0.004,0.005-0.005
	C9.432,7.32,9.811,5.985,9.394,4.543C9.092,3.497,8.363,2.4,7.101,1.091C6.456,0.423,5.59,0.036,4.662,0.002
	c-0.929-0.034-1.82,0.29-2.512,0.91L2.123,0.937C2.111,0.948,2.098,0.96,2.086,0.972C0.71,2.348-0.011,4.274,0,6.543
	c0.019,3.854,2.137,8.262,5.666,11.79c0.665,0.665,1.422,1.324,2.248,1.957c0.411,0.315,0.999,0.237,1.314-0.174
	c0.315-0.411,0.237-0.999-0.174-1.314c-0.761-0.583-1.455-1.188-2.063-1.795c-3.187-3.187-5.1-7.103-5.117-10.474
	c-0.009-1.747,0.517-3.206,1.52-4.219l0.007-0.006c0.681-0.612,1.713-0.574,2.349,0.085C8.178,4.91,8.003,6.098,6.93,7.198
	L5.192,8.949C4.92,9.223,4.844,9.637,5.001,9.991c0.044,0.099,1.111,2.458,3.769,5.116l0.123,0.123
	c2.658,2.658,5.016,3.725,5.115,3.769c0.353,0.157,0.767,0.081,1.042-0.191l1.751-1.738c1.1-1.073,2.288-1.248,4.805,1.179
	c0.659,0.636,0.697,1.667,0.085,2.349l-0.007,0.007c-1.005,0.995-2.448,1.52-4.177,1.52c-0.014,0-0.029,0-0.043,0
	c-1.382-0.007-2.981-0.385-4.626-1.095c-0.475-0.205-1.027,0.014-1.232,0.49c-0.205,0.475,0.014,1.027,0.49,1.232
	c1.901,0.82,3.705,1.24,5.359,1.248c0.018,0,0.035,0,0.053,0c2.246,0,4.154-0.721,5.519-2.086c0.012-0.012,0.023-0.024,0.035-0.036
	l0.024-0.027C23.708,21.159,24.031,20.267,23.998,19.338z"/>
</svg>
